X:26
T:St. Anne's
R:Reel
O:Cape Breton
M:2/4
C:Trad.-Richard Wood
K:D
Ad|f2(fg) fedB|A2(FA) (DF)Ad|B2(GB) (DG)Bd|A(FA) (DF)Ad|
f2(fg) fedB|A2(FA) (DF)Ad|BGB(d cA)ce|d2dd d2:|ag|
fdfa fdf(g|ag)gf g2(gf)|edcB Ace(g|ba)a^g a2(ag)|
fdfa fdf(g|ag)gf g2(gf)|edcB Aceg|fdec d2:||
